X:1
T:Mortals learn your Lives to measure
T:Say good Master Bacchus
T:A Catch, a 3 Voc. by Mr. H. Purcell
%%score [ 1 2 3 ]
L:1/8
Q:1/4=80
M:3/4
K:C
V:1 treble nm="I"
V:2 treble nm="II"
V:3 treble nm="III"
V:1
 A2 | c2 B2 A2 | ^G2 E2 (FE) | C2 B,2 A,2 | E4 A ^G | A2 B2 c2 | F4 c B | B3 A ^G2 | A4 :| %9
w: Say|good Mas- ter|Bacc- hus a _|stride on your|Butt, since our|Cham- pain's all|gine, and our|Cla- ret's run|out,|
V:2
 c B | c2 d2 e2 | e4 d c | d3 e c2 | B4 c2 | A3 ^G A2 | D3 E F2 | E3 F E2 | A,4 :| %9
w: Which of|all the brisk|Wines in your|Em- pire that|grow, will|ser to de-|light your poor|drunk- ard's be-|low.|
V:3
 A,2 | A2 A2 A,2 | E4 E2 | A2 A2 (^F/^G/A) | ^G2 E2 A B | c4 B c | d3 c B2 | ^G3 A B2 | c2 A2 :| %9
w: Re-|solve us Grave|Sir, and|soon send it _ _|o- ver, lest we|die, lest we|die of the|Sin of be'ng|So- ber.|

